X:26
T:Cluck Ol' Hen
R:reel
M:4/4
K:Ador
"Am (F)"e2a2g4|e2a2d4|e2a2g2ag|edc2A4|
"C (G)"e2a2g4|e2a2d4|e2a2g2ag|edc2A4:|
"Am (F)"A2A2c2c2|A2A2G4|A2A2c2d2|edc2A4|
"C (G)"A2A2c2c2|A2A2G4|A2A2c2d2|edc2A4:|
